icons/jekyll/jekyll-original.svg

<?xml version="1.0" encoding="UTF-8" standalone="no"?>
<svg width="128px" height="128px" viewBox="0 0 128 128" version="1.1" id="svg632" sodipodi:docname="jekyll-original.svg" inkscape:version="1.1.2 (b8e25be8, 2022-02-05)" xmlns:inkscape="http://www.inkscape.org/namespaces/inkscape" xmlns:sodipodi="http://sodipodi.sourceforge.net/DTD/sodipodi-0.dtd" xmlns:xlink="http://www.w3.org/1999/xlink" xmlns="http://www.w3.org/2000/svg" xmlns:svg="http://www.w3.org/2000/svg">
  <sodipodi:namedview id="namedview634" pagecolor="#ffffff" bordercolor="#666666" borderopacity="1.0" inkscape:pageshadow="2" inkscape:pageopacity="0.0" inkscape:pagecheckerboard="0" showgrid="false" inkscape:zoom="5.5328856" inkscape:cx="39.852622" inkscape:cy="67.866937" inkscape:window-width="1296" inkscape:window-height="1081" inkscape:window-x="0" inkscape:window-y="25" inkscape:window-maximized="0" inkscape:current-layer="svg632"/>
  <defs id="defs609">
    <filter id="alpha" filterUnits="objectBoundingBox" x="0" y="0" width="1" height="1">
      <feColorMatrix type="matrix" in="SourceGraphic" values="0 0 0 0 1 0 0 0 0 1 0 0 0 0 1 0 0 0 1 0" id="feColorMatrix519"/>
    </filter>
    <mask id="mask0">
      <g filter="url(#alpha)" id="g524">
        <rect x="0" y="0" width="128" height="180" style="fill:rgb(0%,0%,0%);fill-opacity:0.101961;stroke:none" id="rect522"/>
      </g>
    </mask>
    <clipPath id="clip1">
      <rect x="0" y="0" width="128" height="180" id="rect527"/>
    </clipPath>
    <g id="surface5" clip-path="url(#clip1)">
      <path style="stroke:none;fill-rule:nonzero;fill:rgb(0%,0%,0%);fill-opacity:1" d="M 69.578125 9.597656 C 69.503906 9.894531 69.503906 10.214844 69.566406 10.550781 C 69.566406 10.550781 70.582031 17.273438 69.425781 20.265625 L 20.285156 147.34375 L 20.289062 147.34375 C 16.78125 156.679688 21.484375 167.097656 30.855469 170.683594 C 40.226562 174.269531 50.734375 169.664062 54.421875 160.398438 L 54.425781 160.402344 L 103.566406 33.324219 C 104.527344 30.835938 110.007812 26.019531 110.007812 26.019531 C 110.28125 25.8125 110.496094 25.574219 110.640625 25.304688 L 110.664062 25.253906 C 110.691406 25.199219 110.722656 25.148438 110.742188 25.09375 C 112.011719 21.816406 103.835938 15.640625 92.488281 11.300781 C 81.136719 6.960938 70.910156 6.097656 69.644531 9.375 C 69.621094 9.429688 69.609375 9.488281 69.59375 9.542969 Z M 69.578125 9.597656 " id="path530"/>
    </g>
    <linearGradient id="linear0" gradientUnits="userSpaceOnUse" x1="206.4585" y1="215.26289" x2="283.12949" y2="291.9339" gradientTransform="matrix(0.26901865,-0.11892987,0.11958301,0.2675478,-35.037645,25.834914)">
      <stop offset="0" style="stop-color:rgb(56.862745%,56.862745%,56.862745%);stop-opacity:1" id="stop533"/>
      <stop offset="1" style="stop-color:rgb(100%,100%,100%);stop-opacity:1" id="stop535"/>
    </linearGradient>
    <linearGradient id="linear1" gradientUnits="userSpaceOnUse" x1="177.62891" y1="273.75229" x2="224.04559" y2="320.16891" gradientTransform="matrix(0.26901865,-0.11892987,0.11958301,0.2675478,-35.037645,25.834914)">
      <stop offset="0" style="stop-color:rgb(60%,0%,0%);stop-opacity:1" id="stop538"/>
      <stop offset="1" style="stop-color:rgb(90.980392%,0%,0%);stop-opacity:1" id="stop540"/>
    </linearGradient>
    <mask id="mask1">
      <g filter="url(#alpha)" id="g545">
        <rect x="0" y="0" width="128" height="180" style="fill:rgb(0%,0%,0%);fill-opacity:0.301961;stroke:none" id="rect543"/>
      </g>
    </mask>
    <clipPath id="clip2">
      <rect x="0" y="0" width="128" height="180" id="rect548"/>
    </clipPath>
    <g id="surface8" clip-path="url(#clip2)">
      <path style="stroke:none;fill-rule:nonzero;fill:rgb(100%,100%,100%);fill-opacity:1" d="M 68.144531 9.472656 C 68.144531 9.472656 69.148438 16.230469 68.007812 19.183594 L 18.863281 146.261719 L 18.871094 146.265625 C 15.363281 155.597656 20.0625 166.019531 29.433594 169.605469 C 31.0625 170.226562 32.71875 170.59375 34.375 170.742188 C 28.058594 166.015625 25.347656 157.5625 28.246094 149.851562 L 28.238281 149.847656 L 76.40625 25.292969 C 76.40625 25.292969 69.851562 19.167969 68.144531 9.472656 Z M 68.144531 9.472656 " id="path551"/>
    </g>
    <mask id="mask2">
      <g filter="url(#alpha)" id="g556">
        <rect x="0" y="0" width="128" height="180" style="fill:rgb(0%,0%,0%);fill-opacity:0.501961;stroke:none" id="rect554"/>
      </g>
    </mask>
    <clipPath id="clip3">
      <rect x="0" y="0" width="128" height="180" id="rect559"/>
    </clipPath>
    <g id="surface11" clip-path="url(#clip3)">
      <path style="stroke:none;fill-rule:nonzero;fill:rgb(100%,100%,100%);fill-opacity:1" d="M 53.746094 91.449219 C 53.746094 92.230469 53.109375 92.863281 52.324219 92.863281 C 51.535156 92.863281 50.898438 92.230469 50.898438 91.449219 C 50.898438 90.664062 51.535156 90.03125 52.324219 90.03125 C 53.109375 90.03125 53.746094 90.664062 53.746094 91.449219 Z M 53.746094 91.449219 " id="path562"/>
    </g>
    <mask id="mask3">
      <g filter="url(#alpha)" id="g567">
        <rect x="0" y="0" width="128" height="180" style="fill:rgb(0%,0%,0%);fill-opacity:0.501961;stroke:none" id="rect565"/>
      </g>
    </mask>
    <clipPath id="clip4">
      <rect x="0" y="0" width="128" height="180" id="rect570"/>
    </clipPath>
    <g id="surface14" clip-path="url(#clip4)">
      <path style="stroke:none;fill-rule:nonzero;fill:rgb(100%,100%,100%);fill-opacity:1" d="M 63.804688 101.714844 C 63.804688 102.894531 62.84375 103.851562 61.65625 103.851562 C 60.472656 103.851562 59.511719 102.894531 59.511719 101.714844 C 59.511719 100.535156 60.472656 99.582031 61.65625 99.582031 C 62.84375 99.582031 63.804688 100.535156 63.804688 101.714844 Z M 63.804688 101.714844 " id="path573"/>
    </g>
    <mask id="mask4">
      <g filter="url(#alpha)" id="g578">
        <rect x="0" y="0" width="128" height="180" style="fill:rgb(0%,0%,0%);fill-opacity:0.501961;stroke:none" id="rect576"/>
      </g>
    </mask>
    <clipPath id="clip5">
      <rect x="0" y="0" width="128" height="180" id="rect581"/>
    </clipPath>
    <g id="surface17" clip-path="url(#clip5)">
      <path style="stroke:none;fill-rule:nonzero;fill:rgb(100%,100%,100%);fill-opacity:1" d="M 51.433594 113.925781 C 51.433594 116.136719 49.632812 117.929688 47.410156 117.929688 C 45.183594 117.929688 43.382812 116.136719 43.382812 113.925781 C 43.382812 111.714844 45.183594 109.921875 47.410156 109.921875 C 49.632812 109.921875 51.433594 111.714844 51.433594 113.925781 Z M 51.433594 113.925781 " id="path584"/>
    </g>
    <mask id="mask5">
      <g filter="url(#alpha)" id="g589">
        <rect x="0" y="0" width="128" height="180" style="fill:rgb(0%,0%,0%);fill-opacity:0.501961;stroke:none" id="rect587"/>
      </g>
    </mask>
    <clipPath id="clip6">
      <rect x="0" y="0" width="128" height="180" id="rect592"/>
    </clipPath>
    <g id="surface20" clip-path="url(#clip6)">
      <path style="stroke:none;fill-rule:nonzero;fill:rgb(100%,100%,100%);fill-opacity:1" d="M 43.035156 121.332031 C 43.035156 122.511719 42.074219 123.464844 40.890625 123.464844 C 39.703125 123.464844 38.742188 122.511719 38.742188 121.332031 C 38.742188 120.152344 39.703125 119.195312 40.890625 119.195312 C 42.074219 119.195312 43.035156 120.152344 43.035156 121.332031 Z M 43.035156 121.332031 " id="path595"/>
    </g>
    <mask id="mask6">
      <g filter="url(#alpha)" id="g600">
        <rect x="0" y="0" width="128" height="180" style="fill:rgb(0%,0%,0%);fill-opacity:0.501961;stroke:none" id="rect598"/>
      </g>
    </mask>
    <clipPath id="clip7">
      <rect x="0" y="0" width="128" height="180" id="rect603"/>
    </clipPath>
    <g id="surface23" clip-path="url(#clip7)">
      <path style="stroke:none;fill-rule:nonzero;fill:rgb(100%,100%,100%);fill-opacity:1" d="M 50.863281 137.167969 C 50.863281 137.953125 50.226562 138.585938 49.441406 138.585938 C 48.652344 138.585938 48.015625 137.953125 48.015625 137.167969 C 48.015625 136.386719 48.652344 135.753906 49.441406 135.753906 C 50.226562 135.753906 50.863281 136.386719 50.863281 137.167969 Z M 50.863281 137.167969 " id="path606"/>
    </g>
  </defs>
  <use xlink:href="#surface5" mask="url(#mask0)" id="use611" x="0" y="0" width="100%" height="100%" transform="matrix(0.72491249,0,0,0.72491249,17.463853,-0.60765613)" style="display:inline"/>
  <path style="display:inline;fill:url(#linear0);fill-rule:nonzero;stroke:none;stroke-width:0.724912" d="m 66.874001,5.5654268 c -0.05664,0.2180399 -0.05664,0.4474066 -0.01133,0.6937637 0,0 0.739071,4.8733375 -0.09911,7.0395805 l -35.625485,92.120519 0.0057,0.003 c -2.542858,6.76491 0.863665,14.31986 7.656888,16.91935 6.793236,2.59659 14.413312,-0.73914 17.083595,-7.45591 h 0.0028 L 91.512533,22.765109 c 0.693763,-1.800956 4.666624,-5.292428 4.666624,-5.292428 0.201047,-0.15008 0.35396,-0.325644 0.461566,-0.521031 l 0.01696,-0.03681 c 0.01696,-0.03681 0.03965,-0.07362 0.05662,-0.113268 C 97.631809,14.425783 91.707919,9.948882 83.479028,6.8000434 75.252971,3.6540363 67.836776,3.0282331 66.919308,5.4040207 c -0.01416,0.039643 -0.02549,0.082119 -0.03681,0.1245943 z m 0,0" id="path737"/>
  <path style="display:inline;fill:url(#linear1);fill-rule:nonzero;stroke:none;stroke-width:0.724912" d="m 78.047848,47.2394 -25.689086,66.43427 0.01699,0.006 c -1.897232,4.76007 -7.410531,7.23779 -12.300859,5.36605 -4.893159,-1.86892 -7.540789,-7.46717 -5.737002,-12.26688 L 50.753194,64.331477 c 0,0 2.050143,-3.290423 6.073973,-5.629399 4.026663,-2.338975 7.345403,-1.846261 11.813809,-3.82278 4.471237,-1.973688 9.406872,-7.639898 9.406872,-7.639898 z m 0,0" id="path740"/>
  <path style="display:inline;fill:#333333;fill-opacity:1;fill-rule:nonzero;stroke:none;stroke-width:0.724912" d="M 90.97451,14.881685 C 91.489879,13.547959 87.769038,10.880508 82.663502,8.9266423 77.557966,6.9727763 72.998946,6.4743989 72.480746,7.8081248 c -0.515367,1.3365574 3.205473,4.0040082 8.311009,5.9550432 5.108368,1.953865 9.664559,2.455075 10.182755,1.118517 z m 0,0" id="path743"/>
  <use xlink:href="#surface8" mask="url(#mask1)" id="use619" x="0" y="0" width="100%" height="100%" transform="matrix(0.72491249,0,0,0.72491249,17.463853,-0.60765613)" style="display:inline"/>
  <use xlink:href="#surface11" mask="url(#mask2)" id="use621" x="0" y="0" width="100%" height="100%" transform="matrix(0.72491249,0,0,0.72491249,17.463853,-0.60765613)"/>
  <use xlink:href="#surface14" mask="url(#mask3)" id="use623" x="0" y="0" width="100%" height="100%" transform="matrix(0.72491249,0,0,0.72491249,17.463853,-0.60765613)"/>
  <use xlink:href="#surface17" mask="url(#mask4)" id="use625" x="0" y="0" width="100%" height="100%" transform="matrix(0.72491249,0,0,0.72491249,17.463853,-0.60765613)"/>
  <use xlink:href="#surface20" mask="url(#mask5)" id="use627" x="0" y="0" width="100%" height="100%" transform="matrix(0.72491249,0,0,0.72491249,17.463853,-0.60765613)"/>
  <use xlink:href="#surface23" mask="url(#mask6)" id="use629" x="0" y="0" width="100%" height="100%" transform="matrix(0.72491249,0,0,0.72491249,17.463853,-0.60765613)"/>
</svg>

<svg xmlns="http://www.w3.org/2000/svg" xmlns:xlink="http://www.w3.org/1999/xlink" viewBox="0 0 128 128"><defs><clipPath id="b"><path d="M0 0h128v180H0z"/></clipPath><clipPath id="c"><path d="M0 0h128v180H0z"/></clipPath><clipPath id="d"><path d="M0 0h128v180H0z"/></clipPath><clipPath id="e"><path d="M0 0h128v180H0z"/></clipPath><clipPath id="f"><path d="M0 0h128v180H0z"/></clipPath><clipPath id="g"><path d="M0 0h128v180H0z"/></clipPath><clipPath id="h"><path d="M0 0h128v180H0z"/></clipPath><mask id="j"><g filter="url(#a)"><path fill-opacity=".102" d="M0 0h128v180H0z"/></g></mask><mask id="n"><g filter="url(#a)"><path fill-opacity=".302" d="M0 0h128v180H0z"/></g></mask><mask id="p"><g filter="url(#a)"><path fill-opacity=".502" d="M0 0h128v180H0z"/></g></mask><mask id="r"><g filter="url(#a)"><path fill-opacity=".502" d="M0 0h128v180H0z"/></g></mask><mask id="t"><g filter="url(#a)"><path fill-opacity=".502" d="M0 0h128v180H0z"/></g></mask><mask id="v"><g filter="url(#a)"><path fill-opacity=".502" d="M0 0h128v180H0z"/></g></mask><mask id="x"><g filter="url(#a)"><path fill-opacity=".502" d="M0 0h128v180H0z"/></g></mask><g id="i" clip-path="url(#b)"><path d="M69.578 9.598a2.231 2.231 0 0 0-.012.953s1.016 6.722-.14 9.715l-49.14 127.078h.003c-3.508 9.336 1.195 19.754 10.566 23.34 9.372 3.586 19.88-1.02 23.567-10.286l.004.004 49.14-127.078c.961-2.488 6.442-7.304 6.442-7.304.273-.207.488-.446.633-.715l.023-.051c.027-.055.059-.106.078-.16 1.27-3.278-6.906-9.453-18.254-13.793C81.137 6.96 70.91 6.098 69.645 9.375c-.024.055-.036.113-.051.168Zm0 0"/></g><g id="m" clip-path="url(#c)"><path fill="#fff" d="M68.145 9.473s1.003 6.757-.137 9.71l-49.145 127.08.008.004c-3.508 9.332 1.192 19.754 10.563 23.34a18.46 18.46 0 0 0 4.941 1.136c-6.316-4.726-9.027-13.18-6.129-20.89l-.008-.004L76.406 25.293s-6.554-6.125-8.261-15.82Zm0 0"/></g><g id="o" clip-path="url(#d)"><path fill="#fff" d="M53.746 91.45c0 .78-.637 1.413-1.422 1.413a1.42 1.42 0 0 1-1.426-1.414 1.42 1.42 0 0 1 1.426-1.418c.785 0 1.422.633 1.422 1.418Zm0 0"/></g><g id="q" clip-path="url(#e)"><path fill="#fff" d="M63.805 101.715c0 1.18-.961 2.137-2.149 2.137a2.141 2.141 0 0 1-2.144-2.137c0-1.18.96-2.133 2.144-2.133a2.14 2.14 0 0 1 2.149 2.133Zm0 0"/></g><g id="s" clip-path="url(#f)"><path fill="#fff" d="M51.434 113.926c0 2.21-1.801 4.004-4.024 4.004-2.226 0-4.027-1.793-4.027-4.004 0-2.211 1.8-4.004 4.027-4.004 2.223 0 4.024 1.793 4.024 4.004Zm0 0"/></g><g id="u" clip-path="url(#g)"><path fill="#fff" d="M43.035 121.332c0 1.18-.96 2.133-2.144 2.133a2.139 2.139 0 0 1-2.149-2.133c0-1.18.961-2.137 2.149-2.137 1.183 0 2.144.957 2.144 2.137Zm0 0"/></g><g id="w" clip-path="url(#h)"><path fill="#fff" d="M50.863 137.168c0 .785-.636 1.418-1.422 1.418a1.42 1.42 0 0 1-1.425-1.418c0-.781.636-1.414 1.425-1.414.786 0 1.422.633 1.422 1.414Zm0 0"/></g><linearGradient id="k" x1="206.458" x2="283.129" y1="215.263" y2="291.934" gradientTransform="matrix(.28685 -.12681 .1275 .28528 -41.676 23.322)" gradientUnits="userSpaceOnUse"><stop offset="0" stop-color="#919191"/><stop offset="1" stop-color="#fff"/></linearGradient><linearGradient id="l" x1="177.629" x2="224.046" y1="273.752" y2="320.169" gradientTransform="matrix(.28685 -.12681 .1275 .28528 -41.676 23.322)" gradientUnits="userSpaceOnUse"><stop offset="0" stop-color="#900"/><stop offset="1" stop-color="#e80000"/></linearGradient><filter id="a" width="1" height="1" x="0" y="0" filterUnits="objectBoundingBox"><feColorMatrix in="SourceGraphic" values="0 0 0 0 1 0 0 0 0 1 0 0 0 0 1 0 0 0 1 0"/></filter></defs><use xlink:href="#i" width="100%" height="100%" mask="url(#j)" transform="translate(14.306 -4.873) scale(.77296)"/><path fill="url(#k)" d="M66.99 1.71a1.69 1.69 0 0 0-.011.74s.788 5.195-.106 7.505l-37.987 98.227.006.003c-2.711 7.213.921 15.269 8.165 18.04 7.243 2.77 15.368-.787 18.216-7.95h.003L93.263 20.05c.74-1.92 4.975-5.643 4.975-5.643a1.74 1.74 0 0 0 .493-.556l.018-.039c.018-.04.042-.078.06-.12.978-2.534-5.338-7.308-14.112-10.665-8.772-3.357-16.68-4.023-17.658-1.49a1.701 1.701 0 0 0-.04.133zm0 0"/><path fill="url(#l)" d="m78.905 46.146-27.392 70.837.019.006c-2.023 5.076-7.902 7.718-13.117 5.722-5.217-1.993-8.04-7.962-6.117-13.08l17.504-45.26s2.186-3.509 6.476-6.003c4.294-2.494 7.832-1.969 12.597-4.076 4.768-2.105 10.03-8.146 10.03-8.146zm0 0"/><path fill="#333" d="M92.689 11.643c.55-1.422-3.418-4.266-8.862-6.35C78.383 3.21 73.522 2.68 72.969 4.101c-.55 1.425 3.418 4.27 8.862 6.35 5.447 2.083 10.305 2.617 10.858 1.192zm0 0"/><use xlink:href="#m" width="100%" height="100%" mask="url(#n)" transform="translate(14.306 -4.873) scale(.77296)"/><use xlink:href="#o" width="100%" height="100%" mask="url(#p)" transform="translate(14.306 -4.873) scale(.77296)"/><use xlink:href="#q" width="100%" height="100%" mask="url(#r)" transform="translate(14.306 -4.873) scale(.77296)"/><use xlink:href="#s" width="100%" height="100%" mask="url(#t)" transform="translate(14.306 -4.873) scale(.77296)"/><use xlink:href="#u" width="100%" height="100%" mask="url(#v)" transform="translate(14.306 -4.873) scale(.77296)"/><use xlink:href="#w" width="100%" height="100%" mask="url(#x)" transform="translate(14.306 -4.873) scale(.77296)"/></svg>
